X:1
T:The Red Light Saloon
M:3/4
L:1/4
K:C
 D| G G G| e d d| B A G| c2 G/2G/2| c G G| E2 D/2D/2| E G3/2 A/2| G3|\
 z2 D| G G G| e- d d| B A G| c2 G/2G/2| c G G| E C D/2D/2| E G A| G3|\
 z2|
